X: 32
T: No_12_Song_of_Invitation_to_a_Potlatch.krn
N: Derived from No_12_Song_of_Invitation_to_a_Potlatch.krn
%%abc-version 2.0
%%abcx-abcm2ps-target-version 5.9.1 (29 Sep 2008)
%%abc-creator hum2abc beta
%%abcx-conversion-date 2019/03/15 08:36:13
%%humdrum-veritas 46358487
%%humdrum-veritas-data 767984340
%%linebreak <none>
%%barnumbers 0
L: 1/16
M: 2/4
K: D clef=bass
[K:clef=bass][M:2/4]z4(3:2:4G,2G,2G,_B, ]|:  
B,4-B,2B,B, | 
B,2B,B, B,3B, | 
A,2G,G, G,F, z2 ||  
[M:5/8]G,2G,2G,G,G, z _B,3/A,/ ||  
[M:2/4]A,6z2 | 
_B,3A, (3A,2F,2A,2 | 
A,F,3F,4 ||  
[M:3/4]F,4E,D,3 D,2 z2 ||  
[M:2/4]F,3E, A,F,3- | 
F,6A,F,/ z/ | 
F,3F, E,D,2 z | 
F,3F, (3E,2D,2F,2 | 
F,F,3z4 | 
z8 | 
A,4A,/F,3/E,2 | 
F,3E, E,D,2 z | 
F,3E, E,D,F,2 | 
F,F,2 z F,F,F,_B, :|]  
F,F,3z4 |]  



